!!!COM: Georges Bizet
!!!CNT: Francais
!!!TXO: Francais
!!!OTL: Absence
!!!LYR: The/ophile Gautier
!!!ENC: Jacob Pegg
!!!YOR: Georges Bizet: Twenty Melodies. A Kalmus Classic Edition.
!!!YOR: Miami: Warner Bros. Publications,1990. ISBN 0-7692-4977-9
!!!ODT: 1872/
!!NB: Vocal melody and text only encoded.
!!NB: First instance of melodic material only encoded.
**kern	**silbe
*clef G2	*
*k[b-e-a-]	*
*M4/4	*
=5	=5
8r	.
{8ff	{Re-
8ee-	-viens,
8dd	re-
8cc	-viens,
8b-	ma
8.an	bien~
16a-	~ai-
=6	=6
4a-	-me/-
4g}	-e;}
8r	.
{8g-	{Comme
8dd	u-
8cc	-ne
=7	=7
4cc	fleur
2f	loin
8gn	du
8a-	so-
=8	=8
[4g	-leil,
8g]}	|}
8r	.
2r	.
=9	=9
8r	.
{8ff	{La
8ee-	fleur
8dd	de
8cc	ma
8bn	vie
8a#	est
8b	fer-
=10	=10
4dd	-me/-
8cc}	-e}
8r	.
{8cc	{Loin
8bn	de
8cc	ton
8cc#	sou-
=11	=11
(4dd	-ri-
2ee-	|
16ffq	|
16ee-q)	|
8.dd	-re
16ccn	ver-
=12	=12
[4b-	-meil!
8b-]}	|}
8r	.
2r	.
=13	=13
4r	.
{[4cc	{Ah!
(8cc]	|
8cc#)	|
(8dd	re-
8an)	|
=14	=14
(4ccn	-viens
4b-)}	|}
2r	.
=15	=15
8r	.
{8a-	{Re-
8ff	-viens,
8ee-	re-
8dd	-viens,
8cc	ma
8.b-	bien~
16a-	~ai-
=16	=16
[4g	-me/-
8g]}	-e!}
8r	.
{4.a-	{ah!
8f	re-
=17	=17
[4b-	-viens
8b-]	|
8r	.
4.cc	ah!
8a-	re-
=18	=18
[1dd-	-viens!
=19	=19
8dd-]}	|}
8r	.
{4ff	{En-
4ee-	-tre
4dd-	nos
=20	=20
(4.cc	coeurs
8g)	|
4a-	tant
8a-	de
8f	dis-
=21	=21
[2cc	-tan-
8cc]}	-ce!}
8r	.
{8cc	{Tant
8cc#	d'es-
=22	=22
4dd	-pace
8dd	en-
8an	-tre
4.b-	nos
8g	bai-
=23	=23
2dd}	-sers!}
8r	.
{8dd	{O
8.dd	sort
16dd	a-
=24	=24
4ee-}	mer!}
8r	.
{8bn	{O
4.cc	dure
8a-	ab-
=25	=25
[4.ee-	-sen-
8ee-]}	-ce!}
8r	.
{4ee-	{O
[8ee-	sort
=26	=26
8ee-]	|
4ee-	a-
8ee-}	-mer!}
8r	.
{(8ee-	{o^
16ffq	|
16ee-q	|
8ddn)	dure
8ee-	ab-
=27	=27
(8ff	-sen-
8ee-	|
8bn	|
8dd)	|
16cc}	-ce!}
16r	.
{8g	{O
8a-	grands
8f	de/-
=28	=28
[2b-	-sirs
(12b-]	|
12an)	|
12a-	i-
(12g	-na-
b-q	|
8a-;	|
24f)	-pai-
!!fermata is actually floating ambigously - best guess given
=29	=29
[2e-	-ses.
8e-]}	|}
8r	.
4r	.
*-	*-
